material/.icons/material/bookmark-multiple.svg

<svg xmlns="http://www.w3.org/2000/svg" viewBox="0 0 24 24"><path d="M15 5a2 2 0 012 2v16l-7-3-7 3V7a2 2 0 012-2h10M9 1h10a2 2 0 012 2v16l-2-.87V3H7a2 2 0 012-2z"/></svg>

<?xml version="1.0" encoding="UTF-8"?><!DOCTYPE svg PUBLIC "-//W3C//DTD SVG 1.1//EN" "http://www.w3.org/Graphics/SVG/1.1/DTD/svg11.dtd"><svg xmlns="http://www.w3.org/2000/svg" xmlns:xlink="http://www.w3.org/1999/xlink" version="1.1" id="mdi-bookmark-multiple" width="24" height="24" viewBox="0 0 24 24"><path d="M15,5A2,2 0 0,1 17,7V23L10,20L3,23V7C3,5.89 3.9,5 5,5H15M9,1H19A2,2 0 0,1 21,3V19L19,18.13V3H7A2,2 0 0,1 9,1Z" /></svg>
